static/logos/fellow-glyph-color.svg

<svg width="49" height="50" viewBox="0 0 49 50" fill="none" xmlns="http://www.w3.org/2000/svg">
<path d="M25.8472 21.6068C26.0203 21.8468 26.2769 22.0133 26.5665 22.074C26.856 22.1347 27.1578 22.085 27.4126 21.9349C31.1197 19.7259 43.9113 12.4866 47.7528 5.26914C50.9991 -0.823547 44.2003 -0.30645 40.2947 0.434045C38.5789 0.768103 36.9689 1.51142 35.6018 2.60086C31.9946 5.46911 26.3315 10.7822 25.6191 20.7226C25.591 21.0351 25.6723 21.3475 25.8472 21.6068ZM40.9071 16.9233C38.5488 18.3959 36.1209 19.754 33.6318 20.9929C34.2665 22.545 34.5241 24.2255 34.3834 25.8964C34.2428 27.5674 33.7079 29.1811 32.8226 30.6053C31.9427 32.0178 30.7347 33.1968 29.3013 34.0422C27.8778 34.8819 26.2703 35.3597 24.6193 35.4341C24.1408 38.3383 23.1529 41.135 21.7011 43.6952C22.5025 43.7998 23.3102 43.8529 24.1179 43.8545C26.5565 43.8701 28.9748 43.3952 31.2307 42.4548C33.4935 41.5094 35.5448 40.1216 37.264 38.3727C38.9943 36.6117 40.3608 34.5271 41.2851 32.2378C42.2147 29.9413 42.6865 27.4824 42.6755 25C42.6755 22.2083 42.071 19.451 40.9071 16.9233ZM14.6445 28.9821C14.1252 27.7184 13.8598 26.3648 13.8634 24.9984C13.8634 22.2466 14.9282 19.6014 16.8348 17.6169C18.7212 15.6534 21.3096 14.5184 24.0319 14.4613C24.6125 11.5923 25.6702 8.84106 27.1611 6.32208C23.7329 5.73529 20.2084 6.14353 17.005 7.49844C14.7473 8.45497 12.7027 9.85171 10.9905 11.6071C9.26624 13.3752 7.90633 15.465 6.98806 17.7575C6.06525 20.0599 5.5994 22.5198 5.61643 25C5.61096 27.6928 6.16804 30.357 7.25207 32.8221C9.64228 31.4004 12.1106 30.1179 14.6445 28.9821ZM22.4603 28.3213C22.2858 28.0831 22.0287 27.9182 21.7394 27.8593C21.4499 27.8004 21.1488 27.8515 20.895 28.0026C17.1878 30.2007 4.69471 37.5619 0.851632 44.7294C-2.39467 50.8236 4.41194 50.3065 8.31594 49.566C10.0328 49.2393 11.6438 48.4982 13.0089 47.407C15.8448 45.2689 18.1777 42.5355 19.8436 39.399C21.521 36.2446 22.4963 32.7646 22.7025 29.1977C22.7278 28.8862 22.642 28.5756 22.4603 28.3213ZM24.1569 27.3574C25.4536 27.3574 26.5049 26.2873 26.5049 24.9672C26.5049 23.6487 25.4536 22.577 24.1569 22.577C22.8603 22.577 21.8105 23.6487 21.8105 24.9672C21.8105 26.2873 22.8618 27.3574 24.1569 27.3574Z" fill="#51B1CF"/>
</svg>

<svg xmlns="http://www.w3.org/2000/svg" width="62.72" height="64" fill="none" viewBox="0 0 49 50"><path fill="#51B1CF" d="M25.847 21.607a1.187 1.187 0 0 0 1.566.328c3.707-2.21 16.498-9.448 20.34-16.666C50.999-.824 44.2-.306 40.295.434a10.86 10.86 0 0 0-4.693 2.167c-3.607 2.868-9.27 8.181-9.983 18.122-.028.312.053.625.228.884Zm15.06-4.684a86.543 86.543 0 0 1-7.275 4.07 10.604 10.604 0 0 1-.81 9.612 10.333 10.333 0 0 1-3.52 3.437 10.11 10.11 0 0 1-4.683 1.392 24.98 24.98 0 0 1-2.918 8.261c.802.105 1.61.158 2.417.16a18.18 18.18 0 0 0 7.113-1.4 18.415 18.415 0 0 0 6.033-4.082 18.791 18.791 0 0 0 4.021-6.135A19.064 19.064 0 0 0 42.675 25c0-2.792-.604-5.549-1.768-8.077Zm-26.262 12.06a10.408 10.408 0 0 1-.782-3.985c0-2.751 1.065-5.397 2.972-7.381a10.28 10.28 0 0 1 7.197-3.156 26.172 26.172 0 0 1 3.13-8.139 18.192 18.192 0 0 0-10.157 1.176 18.464 18.464 0 0 0-6.014 4.11 18.847 18.847 0 0 0-4.003 6.15A19.115 19.115 0 0 0 5.616 25a19.334 19.334 0 0 0 1.636 7.822 72.357 72.357 0 0 1 7.393-3.84Zm7.815-.662a1.188 1.188 0 0 0-1.565-.318C17.188 30.2 4.695 37.562.852 44.729c-3.247 6.095 3.56 5.578 7.464 4.837a10.728 10.728 0 0 0 4.693-2.159 24.31 24.31 0 0 0 6.835-8.008 24.773 24.773 0 0 0 2.858-10.201 1.323 1.323 0 0 0-.242-.877Zm1.697-.964c1.297 0 2.348-1.07 2.348-2.39 0-1.318-1.051-2.39-2.348-2.39s-2.346 1.072-2.346 2.39c0 1.32 1.05 2.39 2.346 2.39Z"/></svg>
